static/WAS.svg

<?xml version="1.0" encoding="UTF-8" standalone="no"?>
<svg width="150px" height="150px" viewBox="0 0 150 150" version="1.1" xmlns="http://www.w3.org/2000/svg" xmlns:xlink="http://www.w3.org/1999/xlink">
    <!-- Generator: Sketch 39.1 (31720) - http://www.bohemiancoding.com/sketch -->
    <title>WAS</title>
    <desc>Created with Sketch.</desc>
    <defs></defs>
    <g id="Page-1" stroke="none" stroke-width="1" fill="none" fill-rule="evenodd">
        <g id="WAS">
            <g id="Page-1">
                <path d="M74.8397259,26.2820647 L74.7548388,26.2820647 C47.9210864,26.2852107 26.1554076,48.0306653 26.1082481,74.8852949 L26.1082481,74.9702381 C26.1113921,101.83116 47.8519191,123.617513 74.7013913,123.648973 L74.732831,123.648973 L74.7579827,123.648973 L74.7674146,123.648973 C101.607455,123.639535 123.36999,101.887789 123.404573,75.0237208 L123.404573,74.9954064 L123.404573,74.9608 C123.398285,48.1124624 101.673478,26.3324014 74.8397259,26.2820647" id="Fill-1" fill="#FEFEFE"></path>
                <g id="Group-5" transform="translate(25.000000, 25.124018)" fill="#C4CDD3">
                    <path d="M98.4036302,49.8726473 L98.4036302,49.9009617 C98.3721905,76.7650295 76.6096558,98.5167761 49.7696154,98.5230682 L49.7570395,98.5230682 L49.7318878,98.5230682 L49.7035921,98.5230682 C22.8541199,98.4947538 1.1104489,76.7052546 1.10730493,49.847479 L1.10730493,49.7625358 C1.15446443,22.9079061 22.9232871,1.15930556 49.7538956,1.15930556 L49.8387827,1.15930556 C76.6756791,1.20964226 98.3973423,22.9865572 98.4036302,49.8380408 L98.4036302,49.8726473 Z M99.5071624,49.7310753 C99.444283,22.2786974 77.1881456,0.0518981481 49.7570395,0.0487521044 L49.7350318,0.0487521044 L49.6501447,0.0487521044 C22.2127507,0.11167298 0.0100606922,22.3856629 0.00377275957,49.8160185 L0.000628793261,49.8695013 L0.000628793261,49.9009617 C0.0352124226,77.3722159 22.2913499,99.6178914 49.7413197,99.6304756 L49.7507516,99.6304756 L49.7507516,99.6304756 L49.7790473,99.6304756 L49.810487,99.6304756 C77.2604568,99.5958691 99.4882986,77.3344634 99.5071624,49.8726473 C99.5071624,49.853771 99.5103063,49.8348948 99.5103063,49.8065804 C99.5071624,49.8065804 99.5103063,49.7877041 99.5071624,49.7310753 L99.5071624,49.7310753 Z" id="Fill-3"></path>
                </g>
                <path d="M58.4923587,63.9084336 C63.5478565,58.8527412 65.6731777,52.941325 65.6731777,52.941325 L66.8018616,48.8357379 L67.0690987,47.8793406 L61.8909862,44.9786882 C61.8909862,44.9786882 58.8727786,42.880277 52.119539,46.8002476 C44.2093197,51.4658305 37.7767647,57.4999424 34.4504483,63.9021415 C32.6049401,67.4477328 31.1429958,71.5312976 30.3852999,76.1717122 C30.6210974,84.9586125 33.3940756,93.1100119 38.0125621,99.9086125 C36.6952403,87.2489323 48.9221252,73.3811714 58.4923587,63.9084336" id="Fill-6" fill="#002A5B"></path>
                <path d="M97.463393,46.7989891 C90.7101534,42.8790186 87.6888018,44.9774298 87.6888018,44.9774298 L82.5138332,47.8780822 L82.7779264,48.8376255 L83.9066103,52.9432126 C83.9066103,52.9432126 86.0319315,58.8514828 91.0905733,63.9071752 C100.632511,73.3515986 112.81538,87.1627307 111.58609,99.7940965 C116.22344,92.9136987 118.977554,84.664772 119.137897,75.7771983 C118.361337,71.297232 116.924544,67.345801 115.132484,63.9008831 C111.803023,57.50183 105.367324,51.464572 97.463393,46.7989891" id="Fill-8" fill="#002A5B"></path>
                <path d="M81.2197767,39.210417 C98.9643225,41.2175929 110.625294,51.2943711 116.649133,60.2322814 C112.118678,47.333502 101.806468,37.1623425 88.8250312,32.8239481 C85.9608779,33.6702339 82.7854719,35.4508947 81.2197767,39.210417" id="Fill-10" fill="#E21836"></path>
                <path d="M68.3622121,39.210417 C66.787085,35.4320184 63.5865273,33.6513576 60.7129421,32.8113639 C47.6497621,37.1686345 37.2903931,47.4341754 32.7945213,60.4430664 C38.7743452,51.4548193 50.4793317,41.2301771 68.3622121,39.210417" id="Fill-12" fill="#E21836"></path>
                <path d="M71.2669226,38.7095668 L74.7881648,33.5217406 L78.315695,38.7095668 C79.7304798,34.843079 81.959552,32.7100613 84.194912,31.5491712 C81.1672724,30.8947941 78.0264501,30.5392911 74.8038846,30.5361451 C71.5655993,30.532999 68.4090572,30.888502 65.3656978,31.5428791 C67.6073458,32.7037692 69.8458498,34.8273488 71.2669226,38.7095668" id="Fill-14" fill="#E21836"></path>
                <path d="M98.9055303,77.6292743 C91.6901277,65.9448677 75.3037753,54.1472036 74.7913088,53.7791165 C74.2788423,54.1472036 57.8924899,65.9448677 50.6770872,77.6292743 C40.9370796,93.3972457 42.2009541,102.492458 44.722415,107.68343 C50.9977718,113.459567 58.9425746,117.445604 67.7488243,118.842448 L71.5467356,64.9853244 L74.7127096,61.8078202 L74.7535812,61.7637755 L74.7535812,61.7669216 L74.7567251,61.7637755 L74.7975967,61.8078202 L77.9604268,64.9853244 L81.7866338,118.801549 L81.7331864,118.829864 C90.6086033,117.426728 98.6131415,113.406084 104.919938,107.560735 C107.400527,102.350886 108.576371,93.277696 98.9055303,77.6292743" id="Fill-16" fill="#002A5B"></path>
                <polygon id="Fill-18" fill="#C4CDD3" points="77.9610556 64.9840659 74.7982255 61.8065617 74.8328091 122.764306 81.7338152 118.828605 81.7841186 118.800291"></polygon>
                <path d="M74.7715018,49.6895742 L73.3913006,50.7088923 L67.6032586,54.9812198 L69.1186504,49.4724971 L69.3795996,48.5192459 L69.8889221,46.6725182 L68.2069001,45.7633115 L62.7615505,42.8280527 C65.5093771,42.2208662 68.316939,41.8276108 71.1527966,41.6451402 L72.5392857,41.560197 L72.5958771,41.4437934 L73.1492152,40.3080716 L73.2372462,40.1318932 L73.2372462,40.1318932 L74.7903656,36.9732652 L76.3937884,40.2388587 L76.3937884,40.2388587 L76.428372,40.3080716 L76.987998,41.4437934 L77.0414455,41.560197 L78.4310786,41.6451402 C81.2637922,41.8276108 84.0744981,42.2208662 86.8191807,42.8280527 L81.376975,45.7633115 L79.6918091,46.6725182 L80.2011316,48.5192459 L80.4652248,49.4724971 L81.9806165,54.9812198 L76.1925746,50.7088923 L74.8123734,49.6895742 L74.8123734,49.6612598 L74.7903656,49.67699 L74.7715018,49.6612598 L74.7715018,49.6895742 Z" id="Fill-20" fill="#C4CDD3"></path>
                <path d="M74.8117446,49.6615744 L74.8117446,49.6898888 L76.1919458,50.7092069 L81.9799877,54.9815344 L80.464596,49.4728117 L80.2036468,48.5164144 L79.6943242,46.6728328 L81.3763462,45.7667722 L86.8216958,42.8283673 C84.0707253,42.2243269 81.2663074,41.8279254 78.4304498,41.6454548 L77.0439606,41.5573656 L76.9873692,41.444108 L76.4277432,40.3115323 L76.3931596,40.2391733 L74.7897368,36.9767259 L73.2397614,40.1322078 L73.2366174,40.1322078 L73.1485864,40.3115323 L72.5952483,41.444108 L72.5386569,41.5573656 L71.1521678,41.6454548 C68.3163102,41.8279254 65.5087483,42.2243269 62.7609217,42.8283673 L68.2062714,45.7667722 L69.8914373,46.6728328 L69.3789708,48.5164144 L69.1180216,49.4728117 L67.6026298,54.9815344 L73.3906718,50.7092069 L74.770873,49.6898888 L74.770873,49.6615744 L74.7897368,49.6773046 L74.8117446,49.6615744 Z" id="Fill-22" fill="#C4CDD3"></path>
                <rect id="Rectangle" x="0" y="0" width="150" height="150"></rect>
            </g>
        </g>
    </g>
</svg>

<svg xmlns="http://www.w3.org/2000/svg" width="150" height="150" fill-rule="evenodd"><path d="M74.84 26.282h-.085c-26.834.003-48.6 21.75-48.647 48.603v.085c.003 26.86 21.744 48.647 48.593 48.68h.066c26.84-.01 48.603-21.76 48.637-48.625v-.063c-.006-26.848-21.73-48.628-48.565-48.68" fill="#fefefe"/><path d="M123.404 74.997v.028c-.03 26.864-21.794 48.616-48.634 48.622h-.066C47.854 123.62 26.1 101.83 26.107 74.97v-.085c.047-26.855 21.816-48.603 48.647-48.603h.085c26.837.05 48.56 21.827 48.565 48.68v.035zm1.104-.142c-.063-27.452-22.32-49.68-49.75-49.682h-.107C47.213 25.236 25 47.5 25.004 74.94l-.003.053v.03c.035 27.47 22.29 49.717 49.74 49.73h.07c27.45-.035 49.678-22.296 49.697-49.758 0-.02.003-.038.003-.066-.003 0 0-.02-.003-.076z" fill="#c4cdd3"/><path d="M58.492 63.908c5.055-5.056 7.18-10.967 7.18-10.967l1.397-5.062-5.178-2.9s-3.018-2.098-9.77 1.822c-7.9 4.666-14.343 10.7-17.67 17.102-1.846 3.546-3.307 7.63-4.065 12.27a44.24 44.24 0 0 0 7.627 23.737c-1.317-12.66 10.9-26.527 20.48-36m38.97-17.1c-6.753-3.92-9.775-1.822-9.775-1.822l-5.175 2.9 1.393 5.065S86.03 58.85 91.1 63.907c9.542 9.444 21.725 23.256 20.496 35.887 4.637-6.88 7.4-15.13 7.552-24.017a40.7 40.7 0 0 0-4.005-11.876c-3.33-6.4-9.765-12.436-17.67-17.102" fill="#002a5b"/><path d="M81.22 39.2c17.745 2.007 29.406 12.084 35.43 21.022a44.53 44.53 0 0 0-27.824-27.408c-2.864.846-6.04 2.627-7.605 6.386m-12.86 0c-1.575-3.778-4.776-5.56-7.65-6.4C47.65 37.17 37.3 47.434 32.795 60.443 38.774 51.455 50.48 41.23 68.362 39.2m2.905-.5l3.52-5.188 3.528 5.188c1.415-3.866 3.644-6 5.88-7.16-3.028-.654-6.168-1-9.4-1.013-3.238-.003-6.395.352-9.438 1.007 2.242 1.16 4.48 3.284 5.9 7.167" fill="#e21836"/><path d="M98.906 77.63C91.7 65.945 75.304 54.147 74.79 53.78c-.512.368-16.9 12.166-24.114 23.85-9.74 15.768-8.476 24.863-5.955 30.054 6.275 5.776 14.22 9.762 23.026 11.16l3.798-53.857 3.166-3.178.04-.044v.003l.003-.003.04.044 3.163 3.178 3.826 53.816-.053.028a44.24 44.24 0 0 0 23.187-11.269c2.48-5.2 3.656-14.283-6.014-29.93" fill="#002a5b"/><g fill="#c4cdd3"><path d="M77.96 64.984l-3.163-3.178.035 60.958 6.95-3.964zM74.772 49.7l-1.38 1.02-5.788 4.272 1.515-5.5.26-.953.5-1.847-1.682-.9-5.445-2.935c2.748-.607 5.555-1 8.4-1.183l1.386-.085.6-1.252.088-.176 1.553-3.16 2.198 4.47.053.116 1.4.085c2.833.182 5.643.576 8.388 1.183L79.69 46.68l.774 2.8 1.515 5.5-7.168-5.292v-.028l-.022.016-.02-.016v.028z"/><path d="M74.812 49.662v.028l7.168 5.292-2.286-8.31 1.682-.906 5.445-2.938a55.84 55.84 0 0 0-8.391-1.183l-1.386-.088-.057-.113-.56-1.133-.035-.072-1.603-3.262-1.55 3.155h-.003l-.088.18-.553 1.133-.057.113-1.386.088c-2.836.182-5.643.58-8.39 1.183l5.445 2.938 1.685.906-.512 1.844-.26.956-1.515 5.51L74.77 49.7v-.028l.02.016.022-.016z"/></g></svg>
